X:1
T:My Singing Bird
M:4/4
L:1/8
K:F
 FD| C3 D F2G-A| B3 A G2F-G|A-GF-D C3 C| C6| FD| C3 D F2G-A| B3 A G2F-G|\
A-G FD C3 C| C6| AB| c2 c2 d3 c| B2 B2 B3 A| G3 GG-Ac-A| G6 F- D-|\
 C3- D- F2- G- A-| B3- A- G2F-G|A-GF-D C3 C| C6||
